!!!COM: Clara Schumann
!!!CNT: Deutsch
!!!TXO: Deutsch
!!!OTL: "Beim Abschied"
!!!LYR: Serre, Friederike
!!!OPS: Op. 
!!!ONM: No. 
!!!ENC: Leigh VanHandel
!!!YOR: Clara Schumann: Seven Songs. Kristin Norderval, Editor
!!!YOR: Hildegard Publishing Company
!!!ODT: 1846/
!!NB: Vocal melody and text encoded.
**kern	**silbe
*staff1	*
=1-	=1
*clefG2	*
*k[b-]	*
*M6/8	*
*MM[Andante]	*
4.r	.
{4a	{Pur-
8g	-pur-
=2	=2
4b-	-glu-
8a	-ten
8g	leuch-
8a	|
8b-	-ten
=3	=3
4b-	fer
8a	ne
4cc	gol-
8dd	-den
=4	=4
4g	sinkt
8a	der
4d	lich-
8g	-te
=5	=5
4c}	Tag,}
8r	.
8r	.
{8g	{ein-
8g	-zeln
=6	=6
4g	wer-
8g	-den
4g#	Sil-
8g#	-ber-
=7	=7
4a	-ster-
8a	-ne
8r	.
8a	an
8a	dem
=8	=8
4b-	Him-
8b-	-mels-
4gg	-bo-
8gg	-gen
=9	=9
4ee-}	wach.}
8r	.
4.r	.
=10	=10
2.r	.
=11	=11
4.r	.
8r	.
{8dd	{Und
8a	des
=12	=12
4b-	Ta-
8f#	-ges
4g	Ko2-
8fn	-ni-
=13	=13
4.en}	gin}
8r	.
{8g	{neigt
8g	ihr
=14	=14
4g	Haupt
8g	zum
4b-	Schlum-
8b-	-mer
=15	=15
[4.b-	hin;
8b-]}	|}
{8dd	{noch
8dd	ein
=16	=16
4dd	Gruss,
8dd	auf
8dd	Wie-
8ee	|
8ff	-der-
=17	=17
[4.gg	-sehn!
8gg]	|
8b-	S'ist
8b-	kein
=18	=18
4b-	Ab-
8a}	-schied,}
8r	.
{8a	{s'ist
8a	kein
=19	=19
4a	Ab-
8g}	-schied,}
4.r	.
=20	=20
{[4.cc	{kein
4cc]	|
8e	Ver-
=21	=21
4.f}	gehn!}
4.r	.
==	==
*-	*-
